images/icons8-typewriter-with-paper.svg

<svg height="64" viewBox="0 0 64 64" width="64" xmlns="http://www.w3.org/2000/svg"><path d="m15 7c-.550781 0-1 .449219-1 1v16h-5c-.550781 0-1 .449219-1 1v5h-2v-1c.003906-.269531-.101562-.53125-.292969-.722656-.191406-.191406-.453125-.296875-.722656-.289063-.550781.007813-.992187.460938-.984375 1.011719v1.832031c-.019531.109375-.019531.21875 0 .324219v1.84375c-.003906.359375.183594.695312.496094.878906.3125.179688.695312.179688 1.007812 0 .3125-.183594.5-.519531.496094-.878906v-1h2v24.3125c0 1.472656 1.214844 2.6875 2.6875 2.6875h42.613281c1.480469 0 2.699219-1.21875 2.699219-2.699219v-24.300781h2v1c-.003906.359375.183594.695312.496094.878906.3125.179688.695312.179688 1.007812 0 .3125-.183594.5-.519531.496094-.878906v-1.832031c.019531-.109375.019531-.21875 0-.324219v-1.84375c.003906-.269531-.101562-.53125-.292969-.722656-.191406-.191406-.453125-.296875-.722656-.289063-.550781.007813-.992187.460938-.984375 1.011719v1h-2v-5c0-.550781-.449219-1-1-1h-5v-16c0-.550781-.449219-1-1-1zm1 2h32v20h-8.5c-1.921875 0-3.5 1.578125-3.5 3.5 0 .136719.027344.269531.082031.390625.203125 1.730469 1.636719 3.109375 3.417969 3.109375h1c.839844 0 1.5.660156 1.5 1.5s-.660156 1.5-1.5 1.5h-17c-.839844 0-1.5-.660156-1.5-1.5s.660156-1.5 1.5-1.5h1c1.785156 0 3.21875-1.382812 3.421875-3.113281.050781-.125.078125-.253907.078125-.386719 0-1.921875-1.578125-3.5-3.5-3.5h-8.5zm11 14c-.738281 0-1.375.40625-1.722656 1h-6.277344c-.359375-.003906-.695312.183594-.878906.496094-.179688.3125-.179688.695312 0 1.007812.183594.3125.519531.5.878906.496094h6.269531c.347657.605469.988281 1.015625 1.730469 1.015625s1.382812-.410156 1.730469-1.015625h6.542969c.34375.605469.984374 1.015625 1.726562 1.015625s1.382812-.410156 1.730469-1.015625h6.269531c.359375.003906.695312-.183594.878906-.496094.179688-.3125.179688-.695312 0-1.007812-.183594-.3125-.519531-.5-.878906-.496094h-6.277344c-.347656-.59375-.984375-1-1.722656-1s-1.375.40625-1.71875 1h-6.558594c-.347656-.59375-.984375-1-1.722656-1zm-17 3h4v4c0 .550781.449219 1 1 1h9.5c.839844 0 1.5.660156 1.5 1.5s-.660156 1.5-1.5 1.5h-1c-1.921875 0-3.5 1.578125-3.5 3.5 0 .136719.027344.269531.082031.390625.203125 1.730469 1.636719 3.109375 3.417969 3.109375h17c1.785156 0 3.21875-1.382812 3.421875-3.113281.050781-.125.078125-.253907.078125-.386719 0-1.921875-1.578125-3.5-3.5-3.5h-1c-.839844 0-1.5-.660156-1.5-1.5s.660156-1.5 1.5-1.5h9.5c.550781 0 1-.449219 1-1v-4h4v30.300781c0 .390625-.308594.699219-.699219.699219h-42.613281c-.390625 0-.6875-.296875-.6875-.6875zm5 17c-.550781 0-1 .449219-1 1s.449219 1 1 1h2c.550781 0 1-.449219 1-1s-.449219-1-1-1zm8 0c-.550781 0-1 .449219-1 1s.449219 1 1 1h2c.550781 0 1-.449219 1-1s-.449219-1-1-1zm8 0c-.550781 0-1 .449219-1 1s.449219 1 1 1h2c.550781 0 1-.449219 1-1s-.449219-1-1-1zm8 0c-.550781 0-1 .449219-1 1s.449219 1 1 1h2c.550781 0 1-.449219 1-1s-.449219-1-1-1zm8 0c-.550781 0-1 .449219-1 1s.449219 1 1 1h2c.550781 0 1-.449219 1-1s-.449219-1-1-1zm-32 5c-.550781 0-1 .449219-1 1s.449219 1 1 1h2c.550781 0 1-.449219 1-1s-.449219-1-1-1zm8 0c-.550781 0-1 .449219-1 1s.449219 1 1 1h2c.550781 0 1-.449219 1-1s-.449219-1-1-1zm8 0c-.550781 0-1 .449219-1 1s.449219 1 1 1h2c.550781 0 1-.449219 1-1s-.449219-1-1-1zm8 0c-.550781 0-1 .449219-1 1s.449219 1 1 1h2c.550781 0 1-.449219 1-1s-.449219-1-1-1zm8 0c-.550781 0-1 .449219-1 1s.449219 1 1 1h2c.550781 0 1-.449219 1-1s-.449219-1-1-1zm-25 5c-.632812 0-.957031.449219-.957031 1s.324219 1 .957031 1h20.8125c.632812 0 1.144531-.449219 1.144531-1s-.324219-1-.957031-1zm0 0" fill="#044e54"/></svg>

<?xml version="1.0" encoding="UTF-8"?>
<svg xmlns="http://www.w3.org/2000/svg" xmlns:xlink="http://www.w3.org/1999/xlink" viewBox="0 0 64 64" width="64px" height="64px">
<g id="surface17012813">
<path style=" stroke:none;fill-rule:nonzero;fill:rgb(1.568628%,30.588236%,32.941177%);fill-opacity:1;" d="M 15 7 C 14.449219 7 14 7.449219 14 8 L 14 24 L 9 24 C 8.449219 24 8 24.449219 8 25 L 8 30 L 6 30 L 6 29 C 6.003906 28.730469 5.898438 28.46875 5.707031 28.277344 C 5.515625 28.085938 5.253906 27.980469 4.984375 27.988281 C 4.433594 27.996094 3.992188 28.449219 4 29 L 4 30.832031 C 3.980469 30.941406 3.980469 31.050781 4 31.15625 L 4 33 C 3.996094 33.359375 4.183594 33.695312 4.496094 33.878906 C 4.808594 34.058594 5.191406 34.058594 5.503906 33.878906 C 5.816406 33.695312 6.003906 33.359375 6 33 L 6 32 L 8 32 L 8 56.3125 C 8 57.785156 9.214844 59 10.6875 59 L 53.300781 59 C 54.78125 59 56 57.78125 56 56.300781 L 56 32 L 58 32 L 58 33 C 57.996094 33.359375 58.183594 33.695312 58.496094 33.878906 C 58.808594 34.058594 59.191406 34.058594 59.503906 33.878906 C 59.816406 33.695312 60.003906 33.359375 60 33 L 60 31.167969 C 60.019531 31.058594 60.019531 30.949219 60 30.84375 L 60 29 C 60.003906 28.730469 59.898438 28.46875 59.707031 28.277344 C 59.515625 28.085938 59.253906 27.980469 58.984375 27.988281 C 58.433594 27.996094 57.992188 28.449219 58 29 L 58 30 L 56 30 L 56 25 C 56 24.449219 55.550781 24 55 24 L 50 24 L 50 8 C 50 7.449219 49.550781 7 49 7 Z M 16 9 L 48 9 L 48 29 L 39.5 29 C 37.578125 29 36 30.578125 36 32.5 C 36 32.636719 36.027344 32.769531 36.082031 32.890625 C 36.285156 34.621094 37.71875 36 39.5 36 L 40.5 36 C 41.339844 36 42 36.660156 42 37.5 C 42 38.339844 41.339844 39 40.5 39 L 23.5 39 C 22.660156 39 22 38.339844 22 37.5 C 22 36.660156 22.660156 36 23.5 36 L 24.5 36 C 26.285156 36 27.71875 34.617188 27.921875 32.886719 C 27.972656 32.761719 28 32.632812 28 32.5 C 28 30.578125 26.421875 29 24.5 29 L 16 29 Z M 27 23 C 26.261719 23 25.625 23.40625 25.277344 24 L 19 24 C 18.640625 23.996094 18.304688 24.183594 18.121094 24.496094 C 17.941406 24.808594 17.941406 25.191406 18.121094 25.503906 C 18.304688 25.816406 18.640625 26.003906 19 26 L 25.269531 26 C 25.617188 26.605469 26.257812 27.015625 27 27.015625 C 27.742188 27.015625 28.382812 26.605469 28.730469 26 L 35.273438 26 C 35.617188 26.605469 36.257812 27.015625 37 27.015625 C 37.742188 27.015625 38.382812 26.605469 38.730469 26 L 45 26 C 45.359375 26.003906 45.695312 25.816406 45.878906 25.503906 C 46.058594 25.191406 46.058594 24.808594 45.878906 24.496094 C 45.695312 24.183594 45.359375 23.996094 45 24 L 38.722656 24 C 38.375 23.40625 37.738281 23 37 23 C 36.261719 23 35.625 23.40625 35.28125 24 L 28.722656 24 C 28.375 23.40625 27.738281 23 27 23 Z M 10 26 L 14 26 L 14 30 C 14 30.550781 14.449219 31 15 31 L 24.5 31 C 25.339844 31 26 31.660156 26 32.5 C 26 33.339844 25.339844 34 24.5 34 L 23.5 34 C 21.578125 34 20 35.578125 20 37.5 C 20 37.636719 20.027344 37.769531 20.082031 37.890625 C 20.285156 39.621094 21.71875 41 23.5 41 L 40.5 41 C 42.285156 41 43.71875 39.617188 43.921875 37.886719 C 43.972656 37.761719 44 37.632812 44 37.5 C 44 35.578125 42.421875 34 40.5 34 L 39.5 34 C 38.660156 34 38 33.339844 38 32.5 C 38 31.660156 38.660156 31 39.5 31 L 49 31 C 49.550781 31 50 30.550781 50 30 L 50 26 L 54 26 L 54 56.300781 C 54 56.691406 53.691406 57 53.300781 57 L 10.6875 57 C 10.296875 57 10 56.703125 10 56.3125 Z M 15 43 C 14.449219 43 14 43.449219 14 44 C 14 44.550781 14.449219 45 15 45 L 17 45 C 17.550781 45 18 44.550781 18 44 C 18 43.449219 17.550781 43 17 43 Z M 23 43 C 22.449219 43 22 43.449219 22 44 C 22 44.550781 22.449219 45 23 45 L 25 45 C 25.550781 45 26 44.550781 26 44 C 26 43.449219 25.550781 43 25 43 Z M 31 43 C 30.449219 43 30 43.449219 30 44 C 30 44.550781 30.449219 45 31 45 L 33 45 C 33.550781 45 34 44.550781 34 44 C 34 43.449219 33.550781 43 33 43 Z M 39 43 C 38.449219 43 38 43.449219 38 44 C 38 44.550781 38.449219 45 39 45 L 41 45 C 41.550781 45 42 44.550781 42 44 C 42 43.449219 41.550781 43 41 43 Z M 47 43 C 46.449219 43 46 43.449219 46 44 C 46 44.550781 46.449219 45 47 45 L 49 45 C 49.550781 45 50 44.550781 50 44 C 50 43.449219 49.550781 43 49 43 Z M 15 48 C 14.449219 48 14 48.449219 14 49 C 14 49.550781 14.449219 50 15 50 L 17 50 C 17.550781 50 18 49.550781 18 49 C 18 48.449219 17.550781 48 17 48 Z M 23 48 C 22.449219 48 22 48.449219 22 49 C 22 49.550781 22.449219 50 23 50 L 25 50 C 25.550781 50 26 49.550781 26 49 C 26 48.449219 25.550781 48 25 48 Z M 31 48 C 30.449219 48 30 48.449219 30 49 C 30 49.550781 30.449219 50 31 50 L 33 50 C 33.550781 50 34 49.550781 34 49 C 34 48.449219 33.550781 48 33 48 Z M 39 48 C 38.449219 48 38 48.449219 38 49 C 38 49.550781 38.449219 50 39 50 L 41 50 C 41.550781 50 42 49.550781 42 49 C 42 48.449219 41.550781 48 41 48 Z M 47 48 C 46.449219 48 46 48.449219 46 49 C 46 49.550781 46.449219 50 47 50 L 49 50 C 49.550781 50 50 49.550781 50 49 C 50 48.449219 49.550781 48 49 48 Z M 22 53 C 21.367188 53 21.042969 53.449219 21.042969 54 C 21.042969 54.550781 21.367188 55 22 55 L 42.8125 55 C 43.445312 55 43.957031 54.550781 43.957031 54 C 43.957031 53.449219 43.632812 53 43 53 Z M 22 53 "/>
</g>
</svg>
